icons/server-16.svg

<svg width="16" height="16" viewBox="0 0 16 16" xmlns="http://www.w3.org/2000/svg">
  <path fill-rule="evenodd" clip-rule="evenodd" d="M1.75 1C0.783502 1 0 1.7835 0 2.75V6.75C0 7.12181 0.115954 7.46654 0.313672 7.75C0.115954 8.03346 0 8.37819 0 8.75V12.75C0 13.7165 0.783501 14.5 1.75 14.5H14.25C15.2165 14.5 16 13.7165 16 12.75V8.75C16 8.37819 15.884 8.03346 15.6863 7.75C15.884 7.46654 16 7.12181 16 6.75V2.75C16 1.7835 15.2165 1 14.25 1H1.75ZM1.75 8.5C1.61193 8.5 1.5 8.61193 1.5 8.75V12.75C1.5 12.8881 1.61193 13 1.75 13H14.25C14.3881 13 14.5 12.8881 14.5 12.75V8.75C14.5 8.61193 14.3881 8.5 14.25 8.5H1.75ZM1.5 2.75C1.5 2.61193 1.61193 2.5 1.75 2.5H14.25C14.3881 2.5 14.5 2.61193 14.5 2.75V6.75C14.5 6.88807 14.3881 7 14.25 7H1.75C1.61193 7 1.5 6.88807 1.5 6.75V2.75ZM7 4.75C7 4.33579 7.33579 4 7.75 4H12.25C12.6642 4 13 4.33579 13 4.75C13 5.16421 12.6642 5.5 12.25 5.5H7.75C7.33579 5.5 7 5.16421 7 4.75ZM7.75 10C7.33579 10 7 10.3358 7 10.75C7 11.1642 7.33579 11.5 7.75 11.5H12.25C12.6642 11.5 13 11.1642 13 10.75C13 10.3358 12.6642 10 12.25 10H7.75ZM3 4.75C3 4.33579 3.33579 4 3.75 4H4.25C4.66421 4 5 4.33579 5 4.75C5 5.16421 4.66421 5.5 4.25 5.5H3.75C3.33579 5.5 3 5.16421 3 4.75ZM3.75 10C3.33579 10 3 10.3358 3 10.75C3 11.1642 3.33579 11.5 3.75 11.5H4.25C4.66421 11.5 5 11.1642 5 10.75C5 10.3358 4.66421 10 4.25 10H3.75Z"/>
</svg>

<svg xmlns="http://www.w3.org/2000/svg" width="16" height="16" viewBox="0 0 16 16"><path fill-rule="evenodd" d="M1.75 1A1.75 1.75 0 000 2.75v4c0 .372.116.717.314 1a1.742 1.742 0 00-.314 1v4c0 .966.784 1.75 1.75 1.75h12.5A1.75 1.75 0 0016 12.75v-4c0-.372-.116-.717-.314-1 .198-.283.314-.628.314-1v-4A1.75 1.75 0 0014.25 1H1.75zm0 7.5a.25.25 0 00-.25.25v4c0 .138.112.25.25.25h12.5a.25.25 0 00.25-.25v-4a.25.25 0 00-.25-.25H1.75zM1.5 2.75a.25.25 0 01.25-.25h12.5a.25.25 0 01.25.25v4a.25.25 0 01-.25.25H1.75a.25.25 0 01-.25-.25v-4zm5.5 2A.75.75 0 017.75 4h4.5a.75.75 0 010 1.5h-4.5A.75.75 0 017 4.75zM7.75 10a.75.75 0 000 1.5h4.5a.75.75 0 000-1.5h-4.5zM3 4.75A.75.75 0 013.75 4h.5a.75.75 0 010 1.5h-.5A.75.75 0 013 4.75zM3.75 10a.75.75 0 000 1.5h.5a.75.75 0 000-1.5h-.5z"/></svg>
